imagens/logo-postepay.svg

<svg xmlns="http://www.w3.org/2000/svg" xmlns:xlink="http://www.w3.org/1999/xlink" width="500" zoomAndPan="magnify" viewBox="0 0 375 374.999991" height="500" preserveAspectRatio="xMidYMid meet" version="1.0"><path fill="#f5e11c" d="M 0 187.5 C 0 83.964844 83.964844 0 187.5 0 C 291.035156 0 375 83.964844 375 187.5 C 375 291.035156 291.035156 375 187.5 375 C 83.964844 375 0 291.035156 0 187.5 Z M 0 187.5 " fill-opacity="1" fill-rule="nonzero"/><path fill="#0356a2" d="M 52.75 161.878906 C 54.566406 161.125 56.605469 160.820312 58.496094 160.820312 C 62.347656 160.820312 65.597656 162.03125 67.941406 164.375 C 70.433594 166.71875 71.796875 170.117188 72.25 174.273438 C 72.550781 177.222656 72.25 180.472656 71.34375 183.871094 C 70.585938 187.273438 69.453125 190.21875 67.789062 192.714844 C 66.050781 195.8125 63.632812 198.15625 60.6875 199.820312 C 58.34375 201.332031 55.699219 202.011719 52.675781 202.3125 L 52.675781 196.417969 C 53.734375 196.117188 54.714844 195.660156 55.621094 195.207031 C 57.511719 194 59.175781 192.261719 60.535156 189.917969 C 61.894531 187.574219 62.878906 185.007812 63.632812 182.210938 C 64.390625 179.414062 64.539062 176.769531 64.390625 174.199219 C 64.085938 171.554688 63.179688 169.4375 61.746094 167.851562 C 60.15625 166.261719 58.042969 165.507812 55.699219 165.507812 C 54.640625 165.507812 53.65625 165.660156 52.75 165.960938 Z M 26.601562 216.597656 L 36.804688 171.78125 C 37.105469 170.042969 37.410156 168.378906 37.710938 166.640625 C 37.863281 164.902344 38.015625 163.242188 38.164062 161.503906 L 45.269531 161.503906 L 44.664062 167.546875 C 46.855469 165.355469 49.125 163.542969 51.316406 162.558594 C 51.769531 162.257812 52.371094 162.105469 52.828125 161.957031 L 52.828125 166.113281 C 51.769531 166.414062 50.785156 167.019531 49.726562 167.625 C 47.839844 168.984375 46.175781 170.875 44.964844 173.214844 C 43.605469 175.558594 42.625 178.355469 41.867188 181.453125 C 41.113281 184.703125 40.960938 187.199219 41.113281 189.3125 C 41.261719 191.65625 42.171875 193.46875 43.605469 194.90625 C 45.117188 196.265625 47.007812 196.945312 49.351562 196.945312 C 50.558594 196.945312 51.691406 196.796875 52.75 196.492188 L 52.75 202.386719 C 52.296875 202.386719 51.84375 202.386719 51.390625 202.386719 C 48.59375 202.386719 46.402344 201.785156 44.285156 200.726562 C 42.398438 199.667969 40.582031 198.082031 39.148438 195.964844 L 34.386719 216.519531 L 26.601562 216.519531 Z M 26.601562 216.597656 " fill-opacity="1" fill-rule="nonzero"/><path fill="#0356a2" d="M 242.441406 167.851562 C 241.535156 167.851562 240.855469 168 239.949219 168.152344 L 239.949219 162.410156 C 240.402344 162.257812 240.703125 162.105469 241.007812 161.957031 C 243.046875 160.898438 245.464844 160.445312 247.960938 160.445312 C 251.8125 160.445312 254.914062 161.652344 257.105469 163.84375 C 259.296875 166.035156 260.65625 169.285156 260.957031 173.59375 C 261.714844 181.605469 260.203125 188.40625 256.347656 193.847656 C 252.644531 199.441406 247.65625 202.3125 241.382812 202.3125 C 240.929688 202.3125 240.328125 202.160156 239.875 202.160156 L 239.875 194.453125 C 240.78125 194.300781 241.609375 193.847656 242.367188 193.242188 C 243.726562 192.1875 244.710938 190.75 245.769531 188.632812 C 246.824219 186.441406 247.65625 183.871094 248.261719 181.226562 C 248.867188 178.582031 249.015625 176.316406 248.867188 174.425781 C 248.714844 172.234375 247.960938 170.570312 246.976562 169.511719 C 245.84375 168.457031 244.332031 167.851562 242.441406 167.851562 M 239.949219 168.152344 C 237.605469 168.910156 235.488281 170.796875 233.902344 173.59375 C 231.558594 177.601562 230.652344 182.058594 231.105469 186.894531 C 231.410156 189.390625 232.011719 191.355469 233.296875 192.640625 C 234.507812 194 236.09375 194.679688 238.136719 194.679688 C 238.738281 194.679688 239.34375 194.527344 239.949219 194.378906 L 239.949219 202.085938 C 237.757812 201.933594 235.792969 201.328125 234.203125 200.5 C 232.164062 199.441406 230.5 197.703125 229.292969 195.511719 L 224.53125 216.671875 L 212.289062 216.671875 L 221.734375 173.820312 C 222.945312 168.378906 223.625 164.222656 223.925781 161.578125 L 235.035156 161.578125 L 234.734375 166.492188 C 236.472656 164.828125 238.136719 163.542969 239.871094 162.484375 L 239.871094 168.152344 Z M 239.949219 168.152344 " fill-opacity="1" fill-rule="nonzero"/><path fill="#0356a2" d="M 288.542969 182.4375 C 288.242188 182.285156 287.9375 182.285156 287.636719 182.285156 C 287.183594 182.285156 286.878906 182.285156 286.277344 182.285156 C 284.386719 182.285156 282.574219 182.4375 281.136719 182.890625 L 281.136719 176.390625 C 282.722656 176.238281 284.6875 176.238281 286.578125 176.238281 L 289.980469 176.238281 C 290.28125 174.726562 290.582031 173.746094 290.582031 172.839844 C 290.734375 172.082031 290.734375 171.476562 290.734375 170.949219 C 290.582031 169.738281 290.128906 168.910156 289.222656 168.304688 C 288.46875 167.699219 287.332031 167.398438 285.820312 167.398438 C 284.085938 167.398438 282.722656 167.851562 281.816406 168.605469 C 281.515625 168.910156 281.210938 169.058594 281.0625 169.511719 L 281.0625 161.199219 C 282.574219 160.898438 284.160156 160.898438 285.820312 160.898438 C 290.960938 160.898438 294.816406 161.652344 297.6875 163.390625 C 300.332031 165.128906 301.84375 167.699219 302.144531 171.101562 C 302.296875 172.160156 302.296875 173.140625 302.144531 174.351562 C 301.996094 175.40625 301.691406 176.691406 301.390625 178.054688 L 298.292969 191.65625 C 297.839844 193.242188 297.6875 194.90625 297.386719 196.71875 C 297.234375 198.457031 297.234375 200.121094 297.234375 201.859375 L 285.972656 201.859375 C 285.972656 200.953125 285.972656 200.121094 285.972656 199.0625 C 285.972656 198.003906 286.125 197.171875 286.125 196.117188 C 284.613281 198.15625 282.875 199.820312 281.136719 200.726562 L 281.136719 194.527344 C 282.347656 193.921875 283.480469 193.015625 284.6875 191.730469 C 286.652344 189.238281 287.9375 186.140625 288.542969 182.4375 M 281.136719 182.890625 C 279.472656 183.34375 278.1875 183.949219 276.980469 184.777344 C 274.484375 186.367188 273.429688 188.484375 273.730469 190.824219 C 273.730469 192.1875 274.183594 193.167969 275.089844 193.921875 C 275.847656 194.679688 276.828125 194.980469 278.1875 194.980469 C 279.246094 194.980469 280.230469 194.832031 281.136719 194.378906 L 281.136719 200.574219 L 280.835938 200.726562 C 278.945312 201.785156 276.828125 202.386719 274.335938 202.386719 C 270.78125 202.386719 267.988281 201.332031 265.796875 199.441406 C 263.601562 197.550781 262.394531 194.980469 262.09375 191.730469 C 261.636719 186.746094 263.601562 182.890625 267.683594 180.167969 C 270.933594 178.128906 275.394531 176.769531 281.136719 176.316406 Z M 281.136719 161.199219 L 281.136719 169.511719 C 280.53125 170.269531 280.230469 171.25 279.925781 172.460938 L 268.289062 172.460938 C 268.589844 168.757812 270.328125 165.960938 273.277344 163.921875 C 275.542969 162.484375 278.039062 161.578125 281.136719 161.199219 " fill-opacity="1" fill-rule="nonzero"/><path fill="#0356a2" d="M 304.261719 216.445312 L 314.011719 201.707031 L 306.90625 161.199219 L 319 161.199219 L 322.398438 188.9375 L 338.042969 161.199219 L 349.605469 161.199219 L 324.515625 203.296875 L 317.261719 216.445312 Z M 304.261719 216.445312 " fill-opacity="1" fill-rule="nonzero"/><path fill="#0356a2" d="M 95.449219 165.28125 C 94.390625 165.28125 93.5625 165.433594 92.503906 165.734375 L 92.503906 160.59375 C 93.710938 160.445312 94.996094 160.445312 96.355469 160.445312 C 101.117188 160.445312 104.820312 161.652344 107.617188 163.84375 C 110.566406 166.1875 112.078125 169.4375 112.453125 173.59375 C 112.757812 176.84375 112.453125 180.394531 111.398438 184.097656 C 110.488281 187.800781 109.203125 191.050781 107.390625 193.695312 C 105.351562 196.796875 102.933594 198.988281 99.984375 200.347656 C 97.945312 201.40625 95.375 202.011719 92.425781 202.238281 L 92.425781 197.097656 C 93.636719 196.796875 94.769531 196.34375 95.675781 195.738281 C 97.414062 194.679688 98.925781 193.09375 100.289062 190.824219 C 101.796875 188.332031 102.78125 185.535156 103.535156 182.4375 C 104.292969 179.1875 104.59375 176.542969 104.445312 174.125 C 104.140625 171.023438 103.234375 168.832031 101.796875 167.472656 C 100.363281 166.035156 98.320312 165.28125 95.449219 165.28125 M 92.503906 165.734375 C 91.445312 166.035156 90.3125 166.492188 89.253906 167.09375 C 87.515625 168.457031 85.851562 170.195312 84.492188 172.535156 C 83.132812 174.726562 82.148438 177.371094 81.394531 180.621094 C 80.636719 183.871094 80.488281 186.667969 80.636719 189.085938 C 80.789062 191.730469 81.847656 193.695312 83.28125 195.132812 C 84.945312 196.644531 86.984375 197.324219 89.632812 197.324219 C 90.6875 197.324219 91.519531 197.171875 92.425781 197.023438 L 92.425781 202.160156 C 91.371094 202.160156 90.234375 202.3125 89.027344 202.3125 C 84.265625 202.3125 80.488281 201.101562 77.613281 198.609375 C 74.667969 196.265625 73.003906 192.867188 72.703125 188.558594 C 72.398438 185.007812 72.703125 181.453125 73.910156 177.601562 C 74.96875 173.746094 76.40625 170.496094 78.523438 167.699219 C 80.410156 165.207031 82.828125 163.390625 85.777344 162.105469 C 87.667969 161.351562 90.085938 160.746094 92.425781 160.519531 L 92.425781 165.734375 Z M 92.503906 165.734375 " fill-opacity="1" fill-rule="nonzero"/><path fill="#0356a2" d="M 120.617188 188.558594 C 120.3125 189.3125 120.164062 189.917969 120.164062 190.449219 C 120.011719 191.050781 120.011719 191.503906 120.164062 191.957031 C 120.3125 193.621094 120.917969 194.753906 122.050781 195.511719 C 123.261719 196.417969 124.847656 196.71875 127.191406 196.71875 C 130.289062 196.71875 132.632812 196.117188 134.445312 194.90625 C 136.183594 193.546875 136.941406 191.957031 136.789062 190.070312 C 136.789062 188.859375 136.183594 187.878906 135.128906 186.972656 C 134.070312 186.0625 132.027344 184.929688 128.777344 183.417969 C 124.621094 181.53125 121.675781 179.714844 120.085938 178.128906 C 118.347656 176.617188 117.441406 174.726562 117.292969 172.6875 C 116.988281 169.136719 118.347656 166.339844 121.144531 163.996094 C 124.09375 161.804688 128.097656 160.59375 133.085938 160.59375 C 137.695312 160.59375 141.097656 161.351562 143.289062 162.636719 C 145.632812 163.996094 146.839844 165.886719 147.144531 168.683594 L 147.144531 170.195312 C 147.144531 170.648438 147.144531 171.402344 146.992188 172.386719 L 139.738281 172.386719 C 139.738281 171.933594 139.738281 171.476562 139.738281 171.175781 C 139.738281 170.875 139.738281 170.421875 139.738281 170.117188 C 139.585938 168.605469 138.980469 167.472656 137.847656 166.71875 C 136.789062 165.960938 135.203125 165.507812 132.933594 165.507812 C 130.441406 165.507812 128.476562 166.113281 127.191406 167.171875 C 125.679688 168.230469 125.152344 169.664062 125.300781 171.476562 C 125.453125 172.535156 125.90625 173.519531 126.964844 174.273438 C 127.871094 175.179688 130.0625 176.316406 133.464844 177.976562 C 138.226562 180.167969 141.476562 182.132812 142.761719 183.570312 C 144.121094 185.082031 144.953125 186.972656 145.101562 189.164062 C 145.40625 192.867188 143.894531 196.117188 140.339844 198.609375 C 136.941406 201.101562 132.332031 202.464844 126.738281 202.464844 C 122.28125 202.464844 118.878906 201.558594 116.234375 200.121094 C 113.738281 198.457031 112.378906 196.265625 112.078125 193.320312 C 111.925781 192.714844 111.925781 191.957031 112.078125 191.128906 C 112.226562 190.371094 112.378906 189.464844 112.53125 188.632812 L 120.617188 188.632812 Z M 120.617188 188.558594 " fill-opacity="1" fill-rule="nonzero"/><path fill="#0356a2" d="M 169.285156 201.859375 C 167.773438 202.011719 166.492188 202.160156 165.28125 202.3125 C 164.070312 202.3125 162.9375 202.464844 161.878906 202.464844 C 158.933594 202.464844 156.742188 202.011719 155.382812 200.953125 C 153.871094 200.046875 153.1875 198.457031 153.039062 196.191406 C 152.886719 195.433594 153.039062 194.152344 153.1875 192.488281 C 153.339844 190.75 153.792969 188.9375 154.097656 187.046875 L 158.707031 166.945312 L 151.222656 166.945312 L 152.585938 161.804688 L 159.839844 161.804688 L 161.878906 152.660156 L 169.738281 150.769531 L 167.398438 161.878906 L 176.089844 161.878906 L 174.878906 167.019531 L 166.1875 167.019531 L 161.730469 188.027344 C 161.277344 189.617188 160.972656 190.824219 160.972656 191.582031 C 160.820312 192.488281 160.671875 193.09375 160.820312 193.46875 C 160.820312 194.679688 161.277344 195.359375 162.03125 195.8125 C 162.789062 196.417969 164.070312 196.71875 165.886719 196.71875 C 166.492188 196.71875 167.398438 196.570312 168.230469 196.417969 C 168.984375 196.417969 169.890625 196.117188 170.570312 195.964844 Z M 169.285156 201.859375 " fill-opacity="1" fill-rule="nonzero"/><path fill="#0356a2" d="M 194.832031 176.996094 L 204.882812 176.996094 C 205.035156 175.636719 205.183594 174.652344 205.183594 173.898438 C 205.335938 173.140625 205.335938 172.535156 205.183594 172.007812 C 205.035156 169.816406 204.125 168.152344 202.691406 167.019531 C 201.101562 165.808594 198.988281 165.128906 196.34375 165.128906 C 195.890625 165.128906 195.285156 165.28125 194.832031 165.28125 L 194.832031 160.292969 L 196.417969 160.292969 C 201.558594 160.292969 205.5625 161.351562 208.28125 163.242188 C 210.777344 165.128906 212.441406 168.304688 212.742188 172.535156 C 212.894531 174.046875 212.894531 175.636719 212.742188 177.296875 C 212.742188 178.882812 212.441406 180.699219 211.984375 182.4375 L 194.832031 182.4375 Z M 194.832031 202.085938 L 194.832031 196.039062 C 195.738281 195.738281 196.570312 195.285156 197.324219 194.832031 C 199.0625 193.621094 200.421875 191.882812 201.179688 189.691406 L 209.871094 189.691406 C 208.8125 193.695312 206.621094 196.796875 203.21875 198.988281 C 200.875 200.648438 198.082031 201.707031 194.832031 202.085938 M 184.476562 176.996094 L 194.832031 176.996094 L 194.832031 182.4375 L 183.117188 182.4375 C 182.664062 183.644531 182.511719 184.628906 182.359375 185.835938 C 182.210938 186.894531 182.210938 187.878906 182.210938 188.785156 C 182.511719 191.277344 183.417969 193.242188 184.855469 194.527344 C 186.441406 195.890625 188.558594 196.570312 191.355469 196.570312 C 192.5625 196.570312 193.695312 196.417969 194.753906 195.964844 L 194.753906 202.011719 C 193.394531 202.160156 191.957031 202.3125 190.449219 202.3125 C 185.6875 202.3125 182.058594 201.101562 179.1875 198.910156 C 176.542969 196.71875 174.878906 193.46875 174.578125 189.3125 C 174.273438 186.214844 174.578125 182.664062 175.636719 178.65625 C 176.542969 174.804688 177.976562 171.402344 179.640625 168.605469 C 181.378906 165.960938 183.796875 163.769531 186.59375 162.410156 C 188.9375 161.050781 191.65625 160.519531 194.753906 160.21875 L 194.753906 165.054688 C 192.414062 165.355469 190.296875 166.261719 188.710938 168 C 186.667969 170.042969 185.234375 172.988281 184.476562 176.996094 " fill-opacity="1" fill-rule="nonzero"/></svg>

<svg xmlns="http://www.w3.org/2000/svg" width="500" height="500" version="1.0" viewBox="0 0 375 375"><path fill="#f5e11c" d="M0 187.5C0 83.965 83.965 0 187.5 0S375 83.965 375 187.5 291.035 375 187.5 375 0 291.035 0 187.5Zm0 0"/><path fill="#0356a2" d="M52.75 161.879c1.816-.754 3.855-1.059 5.746-1.059 3.852 0 7.102 1.211 9.445 3.555 2.493 2.344 3.856 5.742 4.309 9.898.3 2.95 0 6.2-.906 9.598-.758 3.402-1.89 6.348-3.555 8.844-1.738 3.097-4.156 5.441-7.102 7.105-2.343 1.512-4.988 2.192-8.011 2.493v-5.895c1.058-.3 2.039-.758 2.945-1.211 1.89-1.207 3.555-2.945 4.914-5.289 1.36-2.344 2.344-4.91 3.098-7.707.758-2.797.906-5.441.758-8.012-.305-2.644-1.211-4.762-2.645-6.347-1.59-1.59-3.703-2.344-6.047-2.344a9.316 9.316 0 0 0-2.949.453Zm-26.148 54.719 10.203-44.817c.3-1.738.605-3.402.906-5.14.152-1.739.305-3.399.453-5.137h7.106l-.606 6.043c2.191-2.192 4.461-4.004 6.652-4.988.454-.301 1.055-.454 1.512-.602v4.156c-1.058.301-2.043.907-3.101 1.512-1.887 1.36-3.551 3.25-4.762 5.59-1.36 2.344-2.34 5.14-3.098 8.238-.754 3.25-.906 5.746-.754 7.86.149 2.343 1.059 4.156 2.492 5.593 1.512 1.36 3.403 2.04 5.747 2.04 1.207 0 2.34-.15 3.398-.454v5.895h-1.36c-2.796 0-4.988-.602-7.105-1.66-1.887-1.059-3.703-2.645-5.137-4.762l-4.761 20.555h-7.785ZM242.441 167.852c-.906 0-1.586.148-2.492.3v-5.742c.453-.152.754-.305 1.059-.453 2.039-1.059 4.457-1.512 6.953-1.512 3.851 0 6.953 1.207 9.144 3.399 2.192 2.191 3.551 5.441 3.852 9.75.758 8.011-.754 14.812-4.61 20.254-3.702 5.593-8.69 8.464-14.964 8.464-.453 0-1.055-.152-1.508-.152v-7.707c.906-.152 1.734-.605 2.492-1.21 1.36-1.055 2.344-2.493 3.403-4.61 1.054-2.192 1.886-4.762 2.492-7.406.605-2.645.754-4.91.605-6.801-.152-2.192-.906-3.856-1.89-4.914-1.133-1.055-2.645-1.66-4.536-1.66m-2.492.3c-2.344.758-4.46 2.645-6.047 5.442-2.343 4.008-3.25 8.465-2.797 13.3.305 2.497.907 4.461 2.192 5.747 1.21 1.359 2.797 2.039 4.84 2.039.601 0 1.207-.153 1.812-.301v7.707c-2.191-.152-4.156-.758-5.746-1.586-2.039-1.059-3.703-2.797-4.91-4.988l-4.762 21.16H212.29l9.445-42.852c1.211-5.441 1.891-9.597 2.192-12.242h11.11l-.302 4.914c1.739-1.664 3.403-2.949 5.137-4.008v5.668ZM288.543 182.438c-.3-.153-.606-.153-.906-.153h-1.36c-1.89 0-3.703.153-5.14.606v-6.5c1.586-.153 3.55-.153 5.441-.153h3.402c.301-1.511.602-2.492.602-3.398.152-.758.152-1.363.152-1.89-.152-1.212-.605-2.04-1.511-2.645-.754-.606-1.891-.907-3.403-.907-1.734 0-3.097.454-4.004 1.207-.3.305-.605.454-.753.907v-8.313c1.511-.3 3.097-.3 4.757-.3 5.14 0 8.996.753 11.868 2.492 2.644 1.738 4.156 4.308 4.457 7.71.152 1.06.152 2.04 0 3.25-.149 1.055-.454 2.34-.754 3.704l-3.098 13.601c-.453 1.586-.606 3.25-.906 5.063-.153 1.738-.153 3.402-.153 5.14h-11.261v-2.797c0-1.058.152-1.89.152-2.945-1.512 2.04-3.25 3.703-4.988 4.61v-6.2c1.21-.605 2.343-1.511 3.55-2.797 1.965-2.492 3.25-5.59 3.856-9.292m-7.406.453c-1.664.453-2.95 1.058-4.157 1.886-2.496 1.59-3.55 3.707-3.25 6.047 0 1.363.454 2.344 1.36 3.098.758.758 1.738 1.058 3.098 1.058 1.058 0 2.042-.148 2.949-.601v6.195l-.301.153c-1.89 1.058-4.008 1.66-6.5 1.66-3.555 0-6.348-1.055-8.54-2.946-2.194-1.89-3.401-4.46-3.702-7.71-.457-4.985 1.508-8.84 5.59-11.563 3.25-2.04 7.71-3.398 13.453-3.852Zm0-21.692v8.313c-.606.758-.907 1.738-1.211 2.949h-11.637c.3-3.703 2.04-6.5 4.988-8.54 2.266-1.437 4.762-2.343 7.86-2.722M304.262 216.445l9.75-14.738-7.106-40.508H319l3.398 27.738 15.645-27.738h11.562l-25.09 42.098-7.253 13.148ZM95.45 165.281c-1.06 0-1.888.153-2.946.453v-5.14c1.207-.149 2.492-.149 3.851-.149 4.762 0 8.465 1.207 11.262 3.399 2.95 2.344 4.461 5.594 4.836 9.75.305 3.25 0 6.8-1.055 10.504-.91 3.703-2.195 6.953-4.007 9.597-2.04 3.102-4.457 5.293-7.407 6.653-2.039 1.058-4.609 1.664-7.558 1.89v-5.14c1.21-.301 2.344-.754 3.25-1.36 1.738-1.058 3.25-2.644 4.613-4.914 1.508-2.492 2.492-5.289 3.246-8.387.758-3.25 1.059-5.894.91-8.312-.304-3.102-1.21-5.293-2.648-6.652-1.434-1.438-3.477-2.192-6.348-2.192m-2.945.453c-1.059.301-2.192.758-3.25 1.36-1.738 1.363-3.402 3.101-4.762 5.441-1.36 2.192-2.344 4.836-3.097 8.086-.758 3.25-.907 6.047-.758 8.465.152 2.644 1.21 4.61 2.644 6.047 1.664 1.512 3.703 2.191 6.352 2.191 1.055 0 1.887-.152 2.793-.3v5.136c-1.055 0-2.192.153-3.399.153-4.761 0-8.539-1.211-11.414-3.704-2.945-2.343-4.61-5.742-4.91-10.05-.305-3.551 0-7.106 1.207-10.957 1.059-3.856 2.496-7.106 4.613-9.903 1.887-2.492 4.305-4.308 7.254-5.594 1.891-.753 4.309-1.359 6.649-1.585v5.214ZM120.617 188.559c-.305.754-.453 1.359-.453 1.89-.152.602-.152 1.055 0 1.508.148 1.664.754 2.797 1.887 3.555 1.21.906 2.797 1.207 5.14 1.207 3.098 0 5.442-.602 7.254-1.813 1.739-1.36 2.496-2.949 2.344-4.836 0-1.21-.605-2.191-1.66-3.097-1.059-.91-3.102-2.043-6.352-3.555-4.156-1.887-7.101-3.703-8.691-5.29-1.738-1.51-2.645-3.401-2.793-5.44-.305-3.551 1.055-6.348 3.852-8.692 2.949-2.191 6.953-3.402 11.94-3.402 4.61 0 8.013.758 10.204 2.043 2.344 1.36 3.55 3.25 3.856 6.047v1.511c0 .453 0 1.207-.153 2.192h-7.254v-2.27c-.152-1.512-.758-2.644-1.89-3.398-1.059-.758-2.645-1.211-4.914-1.211-2.493 0-4.457.605-5.743 1.664-1.511 1.058-2.039 2.492-1.89 4.305.152 1.058.605 2.043 1.664 2.796.906.907 3.097 2.043 6.5 3.704 4.762 2.191 8.012 4.156 9.297 5.593 1.36 1.512 2.191 3.403 2.34 5.594.304 3.703-1.207 6.953-4.762 9.445-3.399 2.493-8.008 3.856-13.602 3.856-4.457 0-7.86-.906-10.504-2.344-2.496-1.664-3.855-3.855-4.156-6.8-.152-.606-.152-1.364 0-2.192.149-.758.3-1.664.453-2.496h8.086ZM169.285 201.86c-1.512.152-2.793.3-4.004.452-1.21 0-2.344.153-3.402.153-2.945 0-5.137-.453-6.496-1.512-1.512-.906-2.196-2.496-2.344-4.762-.152-.757 0-2.039.149-3.703.152-1.738.605-3.55.91-5.441l4.609-20.102h-7.484l1.363-5.14h7.254l2.039-9.145 7.86-1.89-2.34 11.109h8.69l-1.21 5.14h-8.691l-4.458 21.008c-.453 1.59-.757 2.797-.757 3.555-.153.906-.301 1.512-.153 1.887 0 1.21.457 1.89 1.211 2.344.758.605 2.04.906 3.856.906.605 0 1.511-.149 2.343-.301.754 0 1.66-.3 2.34-.453ZM194.832 176.996h10.05c.153-1.36.302-2.344.302-3.098.152-.757.152-1.363 0-1.89-.149-2.192-1.059-3.856-2.493-4.988-1.59-1.211-3.703-1.891-6.347-1.891-.453 0-1.059.152-1.512.152v-4.988h1.586c5.14 0 9.144 1.059 11.863 2.95 2.496 1.886 4.16 5.062 4.461 9.292a24.85 24.85 0 0 1 0 4.762c0 1.586-.3 3.402-.758 5.14h-17.152Zm0 25.09v-6.047c.906-.3 1.738-.754 2.492-1.207 1.738-1.21 3.098-2.95 3.856-5.14h8.691c-1.059 4.003-3.25 7.105-6.652 9.296-2.344 1.66-5.137 2.719-8.387 3.098m-10.355-25.09h10.355v5.441h-11.715c-.453 1.208-.605 2.192-.758 3.399-.148 1.059-.148 2.043-.148 2.95.3 2.491 1.207 4.456 2.644 5.741 1.586 1.364 3.704 2.043 6.5 2.043 1.208 0 2.34-.152 3.399-.605v6.047c-1.36.148-2.797.3-4.305.3-4.762 0-8.39-1.21-11.262-3.402-2.644-2.191-4.308-5.441-4.609-9.597-.305-3.098 0-6.649 1.059-10.657.906-3.851 2.34-7.254 4.004-10.05 1.738-2.645 4.156-4.836 6.953-6.196 2.344-1.36 5.062-1.89 8.16-2.191v4.836c-2.34.3-4.457 1.207-6.043 2.945-2.043 2.043-3.477 4.988-4.234 8.996"/></svg>
